static/assets/images/networks/unichain.svg

<svg xmlns="http://www.w3.org/2000/svg" fill="none" viewBox="0 0 256 256"><path fill="#F50FB4" d="M128 256c70.692 0 128-57.308 128-128S198.692 0 128 0 0 57.308 0 128s57.308 128 128 128"/><path fill="#fff" d="M130.338 18.5c0 59.445 48.173 107.662 107.662 107.662l-.005.006v4.17H130.332V238h-4.17c0-59.439-48.179-107.662-107.662-107.662v-4.176h107.662V18.5z"/></svg>

<svg width="256" height="256" viewBox="0 0 256 256" fill="none" xmlns="http://www.w3.org/2000/svg">
<path d="M128 256C198.692 256 256 198.692 256 128C256 57.3075 198.692 0 128 0C57.3075 0 0 57.3075 0 128C0 198.692 57.3075 256 128 256Z" fill="#F50FB4"/>
<path d="M130.338 18.5C130.338 77.9446 178.511 126.162 238 126.162L237.995 126.168V130.338H130.332V238H126.162C126.162 178.561 77.983 130.338 18.5 130.338V126.162H126.162V18.5H130.338Z" fill="white"/>
</svg>
